; generated by QIDISlicer 1.2.1 on 2025-10-06 at 14:22:37 UTC


;
;
; 

; external perimeters extrusion width = 0.22mm
; perimeters extrusion width = 0.22mm
; infill extrusion width = 0.22mm
; solid infill extrusion width = 0.22mm
; top infill extrusion width = 0.22mm
; first layer extrusion width = 0.25mm

;TYPE:Custom
EXCLUDE_OBJECT_DEFINE NAME=stencil_spannungswandler_stl CENTER=87.500,90.000 POLYGON=[[107.500,115.000],[67.500,115.000],[67.500,65.000],[107.500,65.000]]
M73 P0 R21
PRINT_START
G28
M141 S0
G0 Z50 F600
M190 S60
G28 Z
G29; mesh bed leveling, comment this code to close it
G0 X0 Y0 Z50 F6000
M109 S210
M106 P3 S255
M83
G4 P3000
T0



G0 X62.5 Y60 Z5 F6000
M73 P1 R21
G0 Z0.1 F600
G1 E3 F1800
G1 X147.5 E0.85 F3000
G1 Y62 E0.02
G1 X62.5 E0.85
G1 Y145 E0.83
G1 X64.5 E0.02
G1 Y63 E0.82
G1 X74.5 E-0.1
M73 P2 R21
G1 E0.1 F3000
G21 ; set units to millimeters
G90 ; use absolute coordinates
M83 ; use relative distances for extrusion
; Filament gcode
M900 K0.031 T0.03
M107
M106 P2 S0
M106 P3 S255
;LAYER_CHANGE
;Z:0.1
;HEIGHT:0.1
G1 E-.4 F1800
G1 X62.5 Y60 Z0 F30000
G1 X68.66 Y64.507 Z.4 F11819.707
G1 X100.677 Y87.935 Z.4 F30000
EXCLUDE_OBJECT_START NAME='stencil_spannungswandler_stl'
G1 X100.677 Y87.935
G1 Z.1 F600
G1 E.4 F1800
M204 S500
;TYPE:Perimeter
;WIDTH:0.25
G1 F2400
G1 X100.791 Y88.107 E.00192
G1 X100.881 Y88.167 E.00101
G1 X100.766 Y88.243 E.00128
G1 X100.677 Y88.378 E.00151
G1 X100.677 Y87.965 E.00385
M204 S10000
;WIPE_START
G1 F24000
G1 X100.677 Y87.935 E-.0057
G1 X100.791 Y88.107 E-.03862
G1 X100.881 Y88.167 E-.01815
G1 X100.766 Y88.243 E-.02188
G1 X100.677 Y88.378 E-.0239
G1 X100.677 Y87.965 E-.05611
;WIPE_END
G1 E-.23564 F1800
G1 X93.788 Y88.66 Z.463 F11819.72
G1 Z.1 F600
G1 E.4 F1800
M204 S500
G1 F2400
G1 X93.997 Y88.868 E.00275
G1 X94.336 Y88.872 E.00316
G1 X94.177 Y88.979 E.00178
G1 X94.073 Y89.134 E.00174
G1 X93.969 Y88.979 E.00174
G1 X93.696 Y88.796 E.00306
G1 X93.477 Y88.752 E.00208
G1 X93.54 Y88.726 E.00063
G1 X93.666 Y88.537 E.00212
G1 X93.767 Y88.638 E.00133
M204 S10000
;WIPE_START
G1 F24000
G1 X93.788 Y88.66 E-.00578
G1 X93.997 Y88.868 E-.05517
G1 X94.336 Y88.872 E-.05408
G1 X94.177 Y88.979 E-.02539
G1 X94.073 Y89.134 E-.02236
G1 X93.969 Y88.979 E-.02027
G1 X93.696 Y88.796 E-.03236
G1 X93.477 Y88.752 E-.01838
G1 X93.54 Y88.726 E-.00498
G1 X93.624 Y88.601 E-.14122
;WIPE_END
G1 E-.02001 F1800
G1 X95.616 Y88.809 Z.205 F11819.788
G1 Z.1 F600
G1 E.4 F1800
M204 S500
G1 F2400
G1 X95.641 Y88.798 E.00025
G1 X95.641 Y88.826 E.00026
M204 S10000
;WIPE_START
G1 F24000
G1 X95.616 Y88.809 E-.00574
G1 X95.641 Y88.798 E-.00511
G1 X95.641 Y88.826 E-.00517
;WIPE_END
G1 E-.38398 F1800
G1 X95.789 Y85.384 Z.281 F11819.737
G1 Z.1 F600
G1 E.4 F1800
M204 S500
G1 F2400
G1 X95.582 Y85.246 E.00232
G1 X95.769 Y85.121 E.00209
G1 X95.873 Y84.966 E.00174
G1 X95.977 Y85.121 E.00174
G1 X96.025 Y85.154 E.00054
G1 X95.877 Y85.254 E.00166
G1 X95.806 Y85.359 E.00118
M204 S10000
;WIPE_START
G1 F24000
G1 X95.789 Y85.384 E-.00574
G1 X95.582 Y85.246 E-.04655
G1 X95.769 Y85.121 E-.03686
G1 X95.873 Y84.966 E-.02714
G1 X95.977 Y85.121 E-.02461
G1 X96.025 Y85.154 E-.00696
G1 X95.877 Y85.254 E-.02073
G1 X95.806 Y85.359 E-.0134
;WIPE_END
G1 E-.21801 F1800
G1 X94.22 Y85.217 Z.183 F11819.75
G1 Z.1 F600
G1 E.4 F1800
M204 S500
G1 F2400
G1 X94.185 Y85.217 E.00033
G1 X93.746 Y85.398 E.00442
G1 X93.673 Y85.576 E.00179
G1 X93.624 Y85.458 E.00119
G1 X93.436 Y85.332 E.00211
G1 X93.705 Y85.332 E.0025
G1 X93.971 Y85.279 E.00253
G1 X94.142 Y85.165 E.00191
G1 X94.195 Y85.2 E.00059
M204 S10000
;WIPE_START
G1 F24000
G1 X94.22 Y85.217 E-.00574
G1 X94.185 Y85.217 E-.00655
G1 X93.746 Y85.398 E-.0873
G1 X93.673 Y85.576 E-.02697
G1 X93.624 Y85.458 E-.01619
G1 X93.436 Y85.332 E-.02685
G1 X93.705 Y85.332 E-.0283
G1 X93.971 Y85.279 E-.02469
G1 X94.142 Y85.165 E-.01617
G1 X94.195 Y85.2 E-.00448
;WIPE_END
G1 E-.15676 F1800
G1 X92.234 Y85.22 Z.203 F11819.817
G1 Z.1 F600
G1 E.4 F1800
M204 S500
G1 F2400
G1 X92.419 Y85.096 E.00207
G1 X92.473 Y85.016 E.0009
G1 X92.527 Y85.096 E.0009
G1 X92.719 Y85.225 E.00215
G1 X92.264 Y85.22 E.00424
M204 S10000
;WIPE_START
G1 F24000
G1 X92.234 Y85.22 E-.0057
G1 X92.419 Y85.096 E-.04168
G1 X92.473 Y85.016 E-.01605
G1 X92.527 Y85.096 E-.01528
G1 X92.719 Y85.225 E-.03485
G1 X92.264 Y85.22 E-.06062
;WIPE_END
G1 E-.22582 F1800
G1 X95.873 Y82.773 Z.329 F11819.742
G1 Z.1 F600
G1 E.4 F1800
M204 S500
G1 F2400
G1 X96.161 Y82.58 E.00323
G1 X96.493 Y82.514 E.00315
G1 X97.153 Y82.514 E.00615
G1 X97.485 Y82.58 E.00315
G1 X97.834 Y82.814 E.00391
G1 X98.068 Y83.163 E.00391
G1 X98.134 Y83.495 E.00315
G1 X98.134 Y84.605 E.01034
G1 X98.068 Y84.937 E.00315
G1 X97.9 Y85.187 E.0028
G1 X98.068 Y85.438 E.00281
G1 X98.134 Y85.77 E.00315
G1 X98.134 Y89.13 E.03129
G1 X98.068 Y89.462 E.00315
G1 X97.834 Y89.811 E.00391
G1 X97.485 Y90.045 E.00391
G1 X97.153 Y90.111 E.00315
G1 X96.334 Y90.099 E.00763
G1 X96.334 Y90.605 E.00471
G1 X96.268 Y90.937 E.00315
G1 X96.034 Y91.286 E.00391
G1 X95.685 Y91.52 E.00391
G1 X95.353 Y91.586 E.00315
G1 X94.693 Y91.586 E.00615
G1 X94.361 Y91.52 E.00315
G1 X94.073 Y91.327 E.00323
G1 X93.785 Y91.52 E.00323
G1 X93.453 Y91.586 E.00315
G1 X92.793 Y91.586 E.00615
G1 X92.461 Y91.52 E.00315
G1 X92.112 Y91.286 E.00391
G1 X91.878 Y90.937 E.00391
G1 X91.812 Y90.605 E.00315
G1 X91.812 Y89.495 E.01034
G1 X91.878 Y89.163 E.00315
G1 X91.921 Y89.099 E.00072
G1 X91.626 Y89.096 E.00275
G1 X91.084 Y88.554 E.00714
G1 X91.057 Y87.701 E.00795
G1 X91.094 Y87.613 E.00089
G1 X91.057 Y86.751 E.00803
G1 X91.094 Y86.663 E.00089
G1 X91.057 Y85.801 E.00803
G1 X91.162 Y85.549 E.00254
G1 X90.886 Y85.495 E.00262
G1 X90.537 Y85.261 E.00391
G1 X90.303 Y84.912 E.00391
G1 X90.237 Y84.58 E.00315
G1 X90.237 Y83.52 E.00987
G1 X90.303 Y83.188 E.00315
G1 X90.537 Y82.839 E.00391
G1 X90.886 Y82.605 E.00391
G1 X91.218 Y82.539 E.00315
G1 X91.903 Y82.539 E.00638
G1 X92.235 Y82.605 E.00315
G1 X92.473 Y82.764 E.00267
G1 X92.711 Y82.605 E.00267
G1 X93.043 Y82.539 E.00315
G1 X93.728 Y82.539 E.00638
G1 X94.06 Y82.605 E.00315
G1 X94.142 Y82.66 E.00092
G1 X94.261 Y82.58 E.00134
G1 X94.593 Y82.514 E.00315
G1 X95.253 Y82.514 E.00615
G1 X95.585 Y82.58 E.00315
G1 X95.848 Y82.756 E.00295
M204 S10000
G1 X95.848 Y82.756 F30000
G1 X95.873 Y83.134
M204 S500
G1 F2400
G1 X95.977 Y82.979 E.00174
G1 X96.25 Y82.796 E.00306
G1 X96.516 Y82.743 E.00253
G1 X97.13 Y82.743 E.00572
G1 X97.396 Y82.796 E.00253
G1 X97.669 Y82.979 E.00306
G1 X97.852 Y83.252 E.00306
G1 X97.905 Y83.518 E.00253
G1 X97.905 Y84.582 E.00991
G1 X97.852 Y84.848 E.00253
G1 X97.669 Y85.121 E.00306
G1 X97.571 Y85.187 E.0011
G1 X97.669 Y85.254 E.00111
G1 X97.852 Y85.527 E.00306
G1 X97.905 Y85.793 E.00253
G1 X97.905 Y89.107 E.03086
G1 X97.852 Y89.373 E.00253
G1 X97.669 Y89.646 E.00306
G1 X97.396 Y89.829 E.00306
G1 X97.13 Y89.882 E.00253
G1 X96.416 Y89.882 E.00665
G1 X96.15 Y89.829 E.00253
G1 X96.105 Y89.799 E.0005
G1 X96.105 Y90.582 E.00729
G1 X96.052 Y90.848 E.00253
G1 X95.869 Y91.121 E.00306
G1 X95.596 Y91.304 E.00306
G1 X95.33 Y91.357 E.00253
G1 X94.716 Y91.357 E.00572
G1 X94.45 Y91.304 E.00253
G1 X94.177 Y91.121 E.00306
G1 X94.073 Y90.966 E.00174
G1 X93.969 Y91.121 E.00174
G1 X93.696 Y91.304 E.00306
G1 X93.43 Y91.357 E.00253
G1 X92.816 Y91.357 E.00572
G1 X92.55 Y91.304 E.00253
G1 X92.277 Y91.121 E.00306
G1 X92.094 Y90.848 E.00306
G1 X92.041 Y90.582 E.00253
G1 X92.041 Y89.518 E.00991
G1 X92.094 Y89.252 E.00253
G1 X92.277 Y88.979 E.00306
G1 X92.431 Y88.876 E.00173
G1 X91.722 Y88.868 E.0066
G1 X91.31 Y88.456 E.00543
G1 X91.287 Y87.743 E.00664
G1 X91.363 Y87.559 E.00185
G1 X91.31 Y87.506 E.0007
G1 X91.287 Y86.793 E.00664
G1 X91.363 Y86.609 E.00185
G1 X91.31 Y86.556 E.0007
G1 X91.287 Y85.843 E.00664
G1 X91.471 Y85.398 E.00448
G1 X91.631 Y85.332 E.00161
G1 X91.241 Y85.332 E.00363
G1 X90.975 Y85.279 E.00253
G1 X90.702 Y85.096 E.00306
G1 X90.519 Y84.823 E.00306
G1 X90.466 Y84.557 E.00253
G1 X90.466 Y83.543 E.00944
G1 X90.519 Y83.277 E.00253
G1 X90.702 Y83.004 E.00306
G1 X90.975 Y82.821 E.00306
G1 X91.241 Y82.768 E.00253
G1 X91.88 Y82.768 E.00595
G1 X92.146 Y82.821 E.00253
G1 X92.419 Y83.004 E.00306
G1 X92.473 Y83.084 E.0009
G1 X92.527 Y83.004 E.0009
G1 X92.8 Y82.821 E.00306
G1 X93.066 Y82.768 E.00253
G1 X93.705 Y82.768 E.00595
G1 X93.971 Y82.821 E.00253
G1 X94.142 Y82.935 E.00191
G1 X94.35 Y82.796 E.00233
G1 X94.616 Y82.743 E.00253
G1 X95.23 Y82.743 E.00572
G1 X95.496 Y82.796 E.00253
G1 X95.769 Y82.979 E.00306
G1 X95.856 Y83.109 E.00146
M204 S10000
;WIPE_START
G1 F24000
G1 X95.873 Y83.134 E-.00574
G1 X95.977 Y82.979 E-.03493
G1 X96.25 Y82.796 E-.05576
G1 X96.516 Y82.743 E-.03846
G1 X97.13 Y82.743 E-.07525
G1 X97.396 Y82.796 E-.02304
G1 X97.644 Y82.962 E-.14683
;WIPE_END
G1 E-.01999 F1800
G1 X92.747 Y88.817 Z.5 F11819.71
G1 X92.311 Y89.338 F30000
G1 Z.1 F600
G1 E.4 F1800
M204 S500
G1 F2400
G1 X92.441 Y89.143 E.00218
G1 X92.639 Y89.011 E.00222
G1 X92.838 Y88.971 E.00189
G1 X93.408 Y88.971 E.00531
G1 X93.607 Y89.011 E.00189
G1 X93.805 Y89.143 E.00222
G1 X93.937 Y89.341 E.00222
G1 X93.977 Y89.54 E.00189
G1 X93.977 Y90.56 E.0095
G1 X93.937 Y90.759 E.00189
G1 X93.805 Y90.957 E.00222
G1 X93.607 Y91.089 E.00222
G1 X93.408 Y91.129 E.00189
G1 X92.838 Y91.129 E.00531
G1 X92.639 Y91.089 E.00189
G1 X92.441 Y90.957 E.00222
G1 X92.309 Y90.759 E.00222
G1 X92.269 Y90.56 E.00189
G1 X92.269 Y89.54 E.0095
G1 X92.304 Y89.366 E.00165
M204 S10000
G1 X92.304 Y89.366 F30000
G1 X92.525 Y89.429
M204 S500
;TYPE:External perimeter
G1 F2400
G1 X92.606 Y89.308 E.00136
G1 X92.729 Y89.226 E.00138
G1 X92.861 Y89.2 E.00125
G1 X93.385 Y89.2 E.00488
G1 X93.517 Y89.226 E.00125
G1 X93.64 Y89.308 E.00138
G1 X93.722 Y89.431 E.00138
G1 X93.748 Y89.563 E.00125
G1 X93.748 Y90.537 E.00907
G1 X93.722 Y90.669 E.00125
G1 X93.64 Y90.792 E.00138
G1 X93.517 Y90.874 E.00138
G1 X93.385 Y90.9 E.00125
G1 X92.861 Y90.9 E.00488
G1 X92.729 Y90.874 E.00125
G1 X92.606 Y90.792 E.00138
G1 X92.524 Y90.669 E.00138
G1 X92.498 Y90.537 E.00125
G1 X92.498 Y89.563 E.00907
G1 X92.519 Y89.458 E.001
M204 S10000
;WIPE_START
G1 F24000
G1 X92.525 Y89.429 E-.00563
G1 X92.606 Y89.308 E-.02726
G1 X92.729 Y89.226 E-.02566
G1 X92.861 Y89.2 E-.02162
G1 X93.385 Y89.2 E-.07856
G1 X93.517 Y89.226 E-.01489
G1 X93.64 Y89.308 E-.01526
G1 X93.722 Y89.431 E-.01413
G1 X93.748 Y89.563 E-.01191
G1 X93.748 Y90.017 E-.1651
;WIPE_END
G1 E-.01998 F1800
G1 X94.211 Y90.762 Z.146 F11819.88
G1 Z.1 F600
G1 E.4 F1800
M204 S500
;TYPE:Perimeter
G1 F2400
G1 X94.209 Y90.759 E.00003
G1 X94.169 Y90.56 E.00189
G1 X94.169 Y89.54 E.0095
G1 X94.209 Y89.341 E.00189
G1 X94.341 Y89.143 E.00222
G1 X94.539 Y89.011 E.00222
G1 X94.738 Y88.971 E.00189
G1 X95.308 Y88.971 E.00531
G1 X95.507 Y89.011 E.00189
G1 X95.705 Y89.143 E.00222
G1 X95.837 Y89.341 E.00222
G1 X95.877 Y89.54 E.00189
G1 X95.877 Y90.56 E.0095
G1 X95.837 Y90.759 E.00189
G1 X95.705 Y90.957 E.00222
G1 X95.507 Y91.089 E.00222
G1 X95.308 Y91.129 E.00189
G1 X94.738 Y91.129 E.00531
G1 X94.539 Y91.089 E.00189
G1 X94.341 Y90.957 E.00222
G1 X94.228 Y90.787 E.0019
M204 S10000
G1 X94.228 Y90.787 F30000
G1 X94.425 Y90.671
M204 S500
;TYPE:External perimeter
G1 F2400
G1 X94.424 Y90.669 E.00002
G1 X94.398 Y90.537 E.00125
G1 X94.398 Y89.563 E.00907
G1 X94.424 Y89.431 E.00125
G1 X94.506 Y89.308 E.00138
G1 X94.629 Y89.226 E.00138
G1 X94.761 Y89.2 E.00125
G1 X95.285 Y89.2 E.00488
G1 X95.417 Y89.226 E.00125
G1 X95.54 Y89.308 E.00138
G1 X95.622 Y89.431 E.00138
G1 X95.648 Y89.563 E.00125
G1 X95.648 Y90.537 E.00907
G1 X95.622 Y90.669 E.00125
G1 X95.54 Y90.792 E.00138
G1 X95.417 Y90.874 E.00138
G1 X95.285 Y90.9 E.00125
G1 X94.761 Y90.9 E.00488
G1 X94.629 Y90.874 E.00125
G1 X94.506 Y90.792 E.00138
G1 X94.442 Y90.696 E.00107
M204 S10000
;WIPE_START
G1 F24000
G1 X94.425 Y90.671 E-.00574
G1 X94.424 Y90.669 E-.00042
G1 X94.398 Y90.537 E-.02515
G1 X94.398 Y89.563 E-.16981
G1 X94.424 Y89.431 E-.01203
G1 X94.506 Y89.308 E-.01233
G1 X94.629 Y89.226 E-.01142
G1 X94.761 Y89.2 E-.00963
G1 X95.055 Y89.2 E-.13347
;WIPE_END
G1 E-.02 F1800
G1 X92.562 Y83.362 Z.433 F11819.709
G1 Z.1 F600
G1 E.4 F1800
M204 S500
;TYPE:Perimeter
G1 F2400
G1 X92.691 Y83.168 E.00217
G1 X92.889 Y83.036 E.00222
G1 X93.088 Y82.996 E.00189
G1 X93.683 Y82.996 E.00554
G1 X93.882 Y83.036 E.00189
G1 X94.08 Y83.168 E.00222
G1 X94.152 Y83.277 E.00122
G1 X94.241 Y83.143 E.0015
G1 X94.439 Y83.011 E.00222
G1 X94.638 Y82.971 E.00189
G1 X95.208 Y82.971 E.00531
G1 X95.407 Y83.011 E.00189
G1 X95.605 Y83.143 E.00222
G1 X95.737 Y83.341 E.00222
G1 X95.777 Y83.54 E.00189
G1 X95.777 Y84.56 E.0095
G1 X95.737 Y84.759 E.00189
G1 X95.605 Y84.957 E.00222
G1 X95.407 Y85.089 E.00222
G1 X95.208 Y85.129 E.00189
G1 X94.638 Y85.129 E.00531
G1 X94.439 Y85.089 E.00189
G1 X94.241 Y84.957 E.00222
G1 X94.152 Y84.823 E.0015
G1 X94.08 Y84.932 E.00122
G1 X93.882 Y85.064 E.00222
G1 X93.683 Y85.104 E.00189
G1 X93.088 Y85.104 E.00554
G1 X92.889 Y85.064 E.00189
G1 X92.691 Y84.932 E.00222
G1 X92.559 Y84.734 E.00222
G1 X92.519 Y84.535 E.00189
G1 X92.519 Y83.565 E.00903
G1 X92.554 Y83.391 E.00165
M204 S10000
G1 X92.554 Y83.391 F30000
G1 X92.775 Y83.454
M204 S500
;TYPE:External perimeter
G1 F2400
G1 X92.856 Y83.333 E.00136
G1 X92.979 Y83.251 E.00138
G1 X93.111 Y83.225 E.00125
G1 X93.66 Y83.225 E.00511
G1 X93.792 Y83.251 E.00125
G1 X93.915 Y83.333 E.00138
G1 X93.997 Y83.456 E.00138
G1 X94.023 Y83.588 E.00125
G1 X94.023 Y84.512 E.0086
G1 X93.997 Y84.644 E.00125
G1 X93.915 Y84.767 E.00138
G1 X93.792 Y84.849 E.00138
G1 X93.66 Y84.875 E.00125
G1 X93.111 Y84.875 E.00511
G1 X92.979 Y84.849 E.00125
G1 X92.856 Y84.767 E.00138
G1 X92.774 Y84.644 E.00138
G1 X92.748 Y84.512 E.00125
G1 X92.748 Y83.588 E.0086
G1 X92.769 Y83.483 E.001
M204 S10000
;WIPE_START
G1 F24000
G1 X92.775 Y83.454 E-.00563
G1 X92.856 Y83.333 E-.02726
G1 X92.979 Y83.251 E-.02566
G1 X93.111 Y83.225 E-.02162
G1 X93.66 Y83.225 E-.08231
G1 X93.792 Y83.251 E-.01463
G1 X93.915 Y83.333 E-.015
G1 X93.997 Y83.456 E-.01389
G1 X94.023 Y83.588 E-.01171
G1 X94.023 Y84.017 E-.16231
;WIPE_END
G1 E-.01998 F1800
G1 X95.44 Y83.308 Z.183 F11819.799
G1 Z.1 F600
G1 E.4 F1800
M204 S500
G1 F2400
G1 X95.522 Y83.431 E.00138
G1 X95.548 Y83.563 E.00125
G1 X95.548 Y84.537 E.00907
G1 X95.522 Y84.669 E.00125
G1 X95.44 Y84.792 E.00138
G1 X95.317 Y84.874 E.00138
G1 X95.185 Y84.9 E.00125
G1 X94.661 Y84.9 E.00488
G1 X94.529 Y84.874 E.00125
G1 X94.406 Y84.792 E.00138
G1 X94.324 Y84.669 E.00138
G1 X94.298 Y84.537 E.00125
G1 X94.298 Y83.563 E.00907
G1 X94.324 Y83.431 E.00125
G1 X94.406 Y83.308 E.00138
G1 X94.529 Y83.226 E.00138
G1 X94.661 Y83.2 E.00125
G1 X95.185 Y83.2 E.00488
G1 X95.317 Y83.226 E.00125
G1 X95.415 Y83.291 E.0011
M204 S10000
G1 X95.415 Y83.291 F30000
G1 X96.334 Y83.015
M204 S500
;TYPE:Perimeter
G1 F2400
G1 X96.339 Y83.011 E.00006
G1 X96.538 Y82.971 E.00189
G1 X97.108 Y82.971 E.00531
G1 X97.307 Y83.011 E.00189
G1 X97.505 Y83.143 E.00222
G1 X97.637 Y83.341 E.00222
G1 X97.677 Y83.54 E.00189
G1 X97.677 Y84.56 E.0095
G1 X97.637 Y84.759 E.00189
G1 X97.505 Y84.957 E.00222
G1 X97.307 Y85.089 E.00222
G1 X97.108 Y85.129 E.00189
G1 X96.538 Y85.129 E.00531
G1 X96.339 Y85.089 E.00189
G1 X96.141 Y84.957 E.00222
G1 X96.009 Y84.759 E.00222
G1 X95.969 Y84.56 E.00189
G1 X95.969 Y83.54 E.0095
G1 X96.009 Y83.341 E.00189
G1 X96.141 Y83.143 E.00222
G1 X96.309 Y83.031 E.00188
M204 S10000
G1 X96.309 Y83.031 F30000
G1 X96.427 Y83.228
M204 S500
;TYPE:External perimeter
G1 F2400
G1 X96.429 Y83.226 E.00003
G1 X96.561 Y83.2 E.00125
G1 X97.085 Y83.2 E.00488
G1 X97.217 Y83.226 E.00125
G1 X97.34 Y83.308 E.00138
G1 X97.422 Y83.431 E.00138
G1 X97.448 Y83.563 E.00125
G1 X97.448 Y84.537 E.00907
G1 X97.422 Y84.669 E.00125
G1 X97.34 Y84.792 E.00138
G1 X97.217 Y84.874 E.00138
G1 X97.085 Y84.9 E.00125
G1 X96.561 Y84.9 E.00488
G1 X96.429 Y84.874 E.00125
G1 X96.306 Y84.792 E.00138
G1 X96.224 Y84.669 E.00138
G1 X96.198 Y84.537 E.00125
G1 X96.198 Y83.563 E.00907
G1 X96.224 Y83.431 E.00125
G1 X96.306 Y83.308 E.00138
G1 X96.402 Y83.244 E.00107
M204 S10000
;WIPE_START
G1 F24000
G1 X96.427 Y83.228 E-.00564
G1 X96.429 Y83.226 E-.00053
G1 X96.561 Y83.2 E-.02515
G1 X97.085 Y83.2 E-.09136
G1 X97.217 Y83.226 E-.01731
G1 X97.34 Y83.308 E-.01774
G1 X97.422 Y83.431 E-.01643
